assets/sonr-icons/sol.svg

<svg xmlns="http://www.w3.org/2000/svg" width="24" height="24" fill="none" viewBox="0 0 24 24"><path fill="#000" d="M4.85299 16.196C4.98099 16.068 5.15699 15.993 5.34299 15.993H22.242C22.551 15.993 22.705 16.366 22.487 16.584L19.149 19.922C19.021 20.05 18.845 20.125 18.659 20.125H1.75999C1.45099 20.125 1.29699 19.752 1.51499 19.534L4.85299 16.196ZM4.85299 3.73199C4.98599 3.60499 5.16199 3.52899 5.34299 3.52899H22.242C22.551 3.52899 22.705 3.90199 22.487 4.11999L19.149 7.45799C19.021 7.58599 18.845 7.66099 18.659 7.66099H1.75999C1.45099 7.66099 1.29699 7.28799 1.51499 7.06999L4.85299 3.73199ZM19.148 9.92399C19.02 9.79699 18.844 9.72199 18.658 9.72199H1.75899C1.44999 9.72199 1.29599 10.095 1.51399 10.313L4.85199 13.651C4.97899 13.779 5.15599 13.853 5.34199 13.853H22.241C22.55 13.853 22.704 13.48 22.486 13.262L19.148 9.92399Z"/></svg>

<svg xmlns="http://www.w3.org/2000/svg" width="24" height="24" fill="none"><path fill="currentColor" d="M4.853 16.196a.7.7 0 0 1 .49-.203h16.899c.309 0 .463.373.245.591l-3.338 3.338a.7.7 0 0 1-.49.203H1.76a.346.346 0 0 1-.245-.591zm0-12.464a.72.72 0 0 1 .49-.203h16.899c.309 0 .463.373.245.591l-3.338 3.338a.7.7 0 0 1-.49.203H1.76a.346.346 0 0 1-.245-.591zm14.295 6.192a.7.7 0 0 0-.49-.202H1.759a.346.346 0 0 0-.245.591l3.338 3.338a.7.7 0 0 0 .49.202h16.899a.346.346 0 0 0 .245-.591z"/></svg>
